X: 24925
T: Maid Behind The Bar, The
R: reel
M: 4/4
K: Dmajor
E|FAAB AFED|FAAB A2de|fBBA Bcde|fdgf efdB|
FAAB AFED|FAAB A2de|fBBA BcdB|AFEF D3:|
e|faag fdde|fdad fdd2|efga beef|gebe gee2|
faaf b2af|defd e2de|fBBA BcdB|AFEF D3:|

